X: 15991
T: Gravel Walks, The
R: reel
M: 4/4
K: Amixolydian
{AB}A2eA {c}BAeA|(3AAA ed BA[GA]B|{AB}A2eA {c}BAeA|fage dBGB:|
(3AAA aA gAfA|(3AAA ae {c}BA[GA]B|(3AAA aA gAfA|fage dBGB|
(3AAA aA gAfA|(3AAA ae {c}BA[GA]B|ea (3aaa a^ge^g|afge dBGB||

